X:188
T: Feltons Hilandladdy with variations
N: O'Farrell's Pocket Companion v.2 (Sky ed. p.53)
M: C
L: 1/8
R: reel % ?
Q: 300 % ?
K: G
BA |: G2GB A2AB|G2GB BAGF|GBdg edcB|A2 (3ABc B2 AG :|
P:2
d3e f2 g2|d3g edcB|d3e dB g2|dB g2 edcB|
cBcd edcB|A2 (3ABc B2 AG|GBdg edcB|A2 (3ABc B2 AG :|
% [continued]
P:3
GBdg Acea|Bdgb afdB|Ggfg edcB|A2 (3ABc B2 AG :|
P:4
dBcd efge|dcBc dB G2|dBcd efge|dcBc dB G2|ec g2 dB g2|
A2 (3ABc B2 AG|GBdg edcB|A2 (3ABc B2 AG :|
P:5
GGGG AAAA|BBBB AAAA|GGgg ddBB|A2 (3ABc B2 AG :|
ddgg bbgg|ddgg edcB|ddgg bbgg|ddgg edcB|
eecc ddBB|ccAG FADF|Ggfg edcB|A2 (3ABc B2 AG :|
P:6
GDBG ADcA|BGdG FADF|Ggfg edcB|A2 (3ABc B2 AG :|
P:7
(3Bcd dd (3efg gg|(3fed dd (3edc cc|(3Bcd dd (3efg gg|
(3fed dd (3edc cc|c/d/e/f/ ee d/c/B/c/ BB|
A2 (3ABc B2 AG|GBdg edcB|A2 (3ABc B2 AG :|
P:8
(3FDF (3BAF (3AFD (3cBA|(3BGB (3dBG (3FGA (3DFA|
(3GBd (3gfg (3ece (3dBG|A2 (3ABc B2 AG :|
P:9
(3dBd (3gfg (3dBd (3gfg|(3dBd (3gba (3gfe (3dcB|
(3dBd (3gfg (3dBd (3gfg|(3dBd (3gba (3gfe (3dcB|
cc (3ecA BB (3dBG|AA (3BAG (3FGA (3DFA|
(3GBd (3gfg (3ece (3dBG|A2 (3ABc B2 AG :|
